X:1
T:Title
%%score { ( 1 3 ) | 2 }
L:1/8
M:4/4
K:Ab
V:1 treble nm="Grand Piano"
V:3 treble 
V:2 bass 
V:1
 z4 z2[Q:1/4=100] [A,C][B,D] | [CE]2 [CE]2 [DE]2 [DE]2 | [CA]6 [CE][CE] | [DF]2 [DF]2 [EF]2 [EF]2 | %4
[M:3/4] [DB]6 |[M:1/4] [=DA][DA] |[M:4/4] G2 A2 B2 c2 | d6 c[EB] | AGAB c2 [A=d]2 |[M:3/4] [Ge]6 | %10
[M:1/4] EE |[M:4/4] [Ec]2[K:bass][K:treble] [Ec]2 z4 | c6[K:bass] z2 | [Gd]2 d2 z4 |[M:3/4] d6 | %15
[M:1/4] BB |[M:4/4] e2 c2 [CEA]2 [CE]2 | [A,DF]2 [DFA]2 [Fd]2 [Fd]>[Fd] | c e3 d3 B | %19
[M:3/4] [CEA]6 |] %20
V:2
 z4 z2 [A,,E,][A,,E,] | [A,,A,]2 [A,,A,]2 [B,,G,]2 [E,G,]2 | [A,,A,]6 [A,,A,][A,,A,] | %3
 [D,A,]2 [D,A,]2 [C,=A,]2 [F,A,]2 |[M:3/4] [B,,B,]6 |[M:1/4] [B,,F,][B,,B,] | %6
[M:4/4] [E,B,E]2 [E,CE]2 [E,DE]2 [E,CE]2 | [E,B,E]6 [E,A,E][D,G,] | %8
 [C,A,][B,,B,][C,A,][E,G,] [A,E]2 [F,B,]2 |[M:3/4] [E,B,]6 |[M:1/4] [E,G,][E,G,] | %11
[M:4/4] .[A,,A,]2 .[C,A,]2 [A,E]2 [E,G,E]2 | [A,E]2 C,E, A,2 [A,C][A,C] | %13
 .[E,B,]2[K:treble] .[G,B,E]2 [B,EG]2 [=A,E_G]2 |[M:3/4] .[B,EG]2 G,B, E2 |[M:1/4] [DEG][DEG] | %16
[M:4/4] [CEA]2[K:bass] [A,E]2 C,2 A,,2 | D,2 D,2 [D,A,]2 [D,A,]>[D,A,] | %18
 [E,A,E] [E,CE]3 [E,B,E]3 [E,DE] |[M:3/4] A,,6 |] %20
V:3
 x8 | x8 | x8 | x8 |[M:3/4] x6 |[M:1/4] x2 |[M:4/4] x8 | x8 | E2 E2 z4 |[M:3/4] x6 |[M:1/4] x2 | %11
[M:4/4] z[K:bass] B,,[K:treble] z E, c2 B2 | z[K:bass] A,, [A,E]2 E2 EE | z F, z A, d2 c2 | %14
[M:3/4] z E, [EG]2 G2 |[M:1/4] x2 |[M:4/4] x8 | x8 | x8 |[M:3/4] x6 |] %20

